X: 1
T: The Lilies In The Field
R: reel
M: 4/4
L: 1/8
K: Dmaj
|: d2 dc A2 AB | cBcd e2 dc | Addc A2 Bd | cAGE ED D2 :|
| d2 fd Adfd | cdef gece | d2 fd Adfd | eaag edcA
| d2 fd Adfd | cdef g2 fg | afge d2 cd | eaag edcA |


Tune 1750	Setting 15189

